X: 41005
T: Trip To Galway
R: reel
M: 4/4
K: Dmajor
DEFA defa|g2fg edBe|dBAF ABde|(3fed gf edBA|
DEFA defa|g2fg edBd|a2fb afdf|(3gfe ag fd d2:|
af~f2 afdf|(3gfe fg edBc|dBAF ABde|(3fed gf efge|
af~f2 afdf|(3gfe fg edBd|a2fb afdf|(3gfe ag fd d2|
af~f2 afdf|(3gfe fg edBc|dBAF ABde|(3fed gf efge|
a3b afdf|g2fg edBA|DEFA defa|gbag fdd2||

